assets/Woman climbing/Medium-Dark/Flat/woman_climbing_flat_medium-dark.svg

<svg width="32" height="32" viewBox="0 0 32 32" fill="none" xmlns="http://www.w3.org/2000/svg">
<path d="M9.59307 20.0245L9.01608 17.5034C8.75608 16.9734 9.17 16.36 9.72 16.14L15.09 13.98C15.76 13.71 16.23 13.11 16.35 12.41L18 2L17.2715 2.25746L16.543 2H13.1972L11.6093 2.44321L10.015 2H2V14.8661L2.94105 18.1245L2 21.59V23.044L3.77898 28.7905L10.4634 30H13.97L9.06 25.41C8.77 25.14 8.77 24.68 9.06 24.41L10.02 23.5C10.7542 22.792 11.0148 21.7478 10.7281 20.7948C10.6868 20.6576 9.65728 20.1567 9.59307 20.0245Z" fill="#D3D3D3"/>
<path d="M16.0003 5.54L16.5403 2H18.004L16.6203 12.48C16.5103 13.41 15.8803 14.2 15.0003 14.51L9.48027 16.47L6.16027 17.63C5.22027 17.96 2 19.03 2 19.03V14.85L9.34027 12.73C10.5803 12.37 11.4803 11.31 11.6403 10.03L11.9103 7.86C11.9703 7.38 11.9103 6.9 11.7403 6.45L10.0303 2H13.2003L13.9903 5.91C14.0203 6.06 14.0203 6.21 14.0003 6.36L13.5803 9.41C13.5403 9.67 13.8403 9.83 14.0403 9.66L14.8003 9C14.9303 8.88 15.0303 8.74 15.0903 8.57L15.8503 6.2C15.9103 5.98 15.9703 5.76 16.0003 5.54ZM4.39 24.08L2 23V30H10.56C10.59 30 7.93 28.57 6.83 27.98C6.53 27.82 6.29 27.56 6.16 27.25L5.13 24.84C4.98 24.5 4.72 24.23 4.39 24.08Z" fill="#9B9B9B"/>
<path d="M9.5 16.457L9.27 17.23C9.21 17.42 9.23 17.63 9.32 17.82L10.73 20.79L7.77 19.89C7.04 19.67 6.26 19.72 5.57 20.02L2 21.6V19.03L9.5 16.457Z" fill="#636363"/>
<path d="M26.2398 19.5999L24.3398 18.8799V20.3299C24.3398 20.8599 24.7698 21.2799 25.2898 21.2799C25.8198 21.2799 26.2398 20.8499 26.2398 20.3299V19.5999Z" fill="#635994"/>
<path d="M24.6059 18.1299C24.6059 18.0325 24.527 17.9536 24.4296 17.9536C24.3322 17.9536 24.2533 18.0325 24.2533 18.1299V18.9886C24.238 19.074 24.2867 19.1602 24.3713 19.1893L26.1713 19.8093C26.2648 19.8415 26.3667 19.7919 26.3989 19.6984C26.4311 19.6049 26.3814 19.503 26.2879 19.4708L24.6059 18.8914V18.1299Z" fill="#433B6B"/>
<path d="M19.9174 7.75861C19.9744 7.67112 20.332 7.09248 20.1199 6.64989C19.9699 6.33989 19.7199 6.42989 19.7199 6.42989C19.7199 6.42989 19.7699 6.07989 19.4699 6.00989C19.0699 5.90989 18.6099 6.04989 18.6099 6.04989C18.2399 6.16989 17.9199 6.53989 17.8699 6.79989C17.8299 7.01989 17.8699 7.34989 17.9399 7.56989L18.2627 8.27424L18.2549 8.27687C19.348 11.5341 22.1334 13.514 24.7742 14.4685L25.366 12.8313C23.0376 11.9897 20.7929 10.3212 19.9174 7.75861Z" fill="#966661"/>
<path d="M18.9818 15.687L18.1752 17.9683L17.06 17.36L11.7383 20.0703L11.5273 19.3477L11.7383 18.668L16.1 15.67C16.74 15.23 17.54 15.11 18.28 15.34H18.29L18.9818 15.687Z" fill="#966661"/>
<path d="M21.5472 21.8079L19.6423 20.5447L19.0402 21.46C18.7102 21.96 18.7102 22.62 19.0502 23.12L21.7302 27.11L22.7702 26.21L20.9302 22.5L21.5472 21.8079Z" fill="#966661"/>
<path d="M19.0274 6.71194C19.0783 6.68015 19.0937 6.61315 19.0619 6.56229C19.0301 6.51143 18.9631 6.49596 18.9123 6.52775C18.8143 6.589 18.7508 6.66728 18.7192 6.75436C18.6879 6.84044 18.6908 6.92702 18.7115 7.00141C18.7319 7.07498 18.7708 7.14091 18.8183 7.18865C18.86 7.23053 18.9279 7.27675 19.0078 7.26829C18.9637 7.32269 18.9174 7.38624 18.8689 7.46046C18.8361 7.51068 18.8502 7.57798 18.9005 7.61077C18.9507 7.64357 19.018 7.62944 19.0508 7.57923C19.2051 7.34291 19.3242 7.24196 19.3955 7.19933L19.4028 7.19509C19.4353 7.18678 19.461 7.17946 19.4797 7.17384C19.491 7.17046 19.4996 7.1677 19.5057 7.16572L19.5128 7.16334L19.5149 7.16263L19.5159 7.16227C19.563 7.14567 19.5927 7.09916 19.5879 7.04952C19.5784 6.94912 19.4944 6.94161 19.4219 6.9564C19.3947 6.96195 19.3622 6.97236 19.3249 6.99068C19.2485 7.0093 19.1365 7.03246 18.9922 7.05132C18.9889 7.04961 18.9822 7.04536 18.9723 7.03542C18.952 7.01503 18.9315 6.98221 18.9207 6.94328C18.9101 6.90517 18.9099 6.8655 18.9233 6.82846C18.9364 6.79241 18.9654 6.75069 19.0274 6.71194Z" fill="#764C49"/>
<path d="M25.0899 10.66L24.9799 12.41L23.1899 12.32L23.3099 10.54L25.0899 10.66Z" fill="#8B5C56"/>
<path d="M25.5196 13.27C25.4696 12.95 25.3296 12.51 24.9396 12.2C23.9596 11.42 23.1896 11.75 23.1896 11.75C23.1896 11.75 22.1896 12.11 22.0396 13.77C22.0396 13.78 21.6596 15.18 20.6396 16.46L24.2396 18.55C25.6396 16.14 25.6696 13.64 25.5196 13.27Z" fill="#8B62BF"/>
<path d="M20.8102 18.01L19.2002 20.8L20.8702 21.91C21.2802 22.18 21.8302 22.08 22.1102 21.67L23.7202 19.35L20.8102 18.01Z" fill="#636363"/>
<path d="M17.9503 18.0999L18.8703 15.6299L20.6443 16.4539L20.9196 16.0901L24.4896 18.1001L24.2399 18.5496C24.2399 18.5496 23.9203 19.2199 23.3803 19.6999C22.8403 20.1799 21.5603 19.9699 21.5603 19.9699L18.6503 19.3699C18.0703 19.2599 17.7403 18.6499 17.9503 18.0999Z" fill="#9B9B9B"/>
<path d="M22.6406 10.7709C23.1906 11.0909 24.2106 11.3309 24.8306 10.8309L25.5706 10.0909L26.3606 9.34089C26.7506 8.68089 26.5206 7.82089 25.8606 7.43089L25.0806 6.97089C24.4206 6.58089 23.5606 6.81089 23.1706 7.47089L22.875 7.97036C22.6638 8.09948 22.5271 8.15881 22.4323 8.19994C22.322 8.24778 22.2685 8.27099 22.2207 8.35075C22.1315 8.49932 22.2288 8.71655 22.3764 8.81785C21.9332 9.60313 21.7285 10.2323 22.6406 10.7709Z" fill="#966661"/>
<path d="M25.1568 8.84636C25.1843 8.61628 25.1093 8.21387 24.4399 7.82007C23.5699 7.31007 23.5099 6.87007 23.7999 6.39007C24.0999 5.88007 24.5799 6.00007 24.8099 6.13007C25.1026 6.30223 25.2378 6.43734 25.3503 6.54976C25.4992 6.69853 25.6083 6.80754 25.9899 6.91007C26.9199 7.16007 28.0099 7.99007 27.2499 9.28007C26.9016 9.86951 26.5982 10.2212 26.3486 10.4282C26.4133 10.5027 26.4666 10.59 26.5151 10.687C26.7651 11.207 26.6151 11.847 26.1551 12.197C25.6851 12.567 25.0451 12.527 24.6051 12.177L24.5251 12.097C23.9651 11.567 23.8051 11.007 23.7651 10.627C23.9551 10.407 24.1251 10.167 24.2951 9.92704C24.2951 9.91704 24.2926 9.90954 24.2901 9.90204C24.2876 9.89454 24.2851 9.88704 24.2851 9.87704C24.4251 9.70705 24.5751 9.54705 24.7251 9.38705C24.8092 9.29408 24.8875 9.1913 24.9659 9.08827C25.0284 9.00619 25.091 8.92394 25.1568 8.84636Z" fill="#2D242D"/>
<path d="M25.4093 9.5351C25.4093 9.83615 25.1653 10.0802 24.8642 10.0802C24.5631 10.0802 24.3191 9.83615 24.3191 9.5351C24.3191 9.23404 24.5631 8.98999 24.8642 8.98999C25.1653 8.98999 25.4093 9.23404 25.4093 9.5351Z" fill="#8B5C56"/>
<path d="M25.3892 8.68869C25.4714 8.58438 25.4534 8.43323 25.3491 8.35109C25.2448 8.26896 25.0936 8.28694 25.0115 8.39125L23.0115 10.9312C22.9294 11.0356 22.9473 11.1867 23.0517 11.2688C23.156 11.351 23.3071 11.333 23.3892 11.2287L25.3892 8.68869ZM11.737 18.6606C11.737 18.6606 10.5847 17.8199 9.80003 17.2427C9.64827 17.1266 9.36985 17.3886 9.25803 17.4979C9.17655 17.5776 9.20618 17.6482 9.20618 17.6482L10.3944 20.1423C10.3944 20.1423 10.622 20.637 10.8552 20.5186L11.0512 20.4232C11.0606 20.4195 11.07 20.4153 11.0794 20.4107L11.764 20.0709L11.737 18.6606ZM21.55 26.8601C21.55 26.8601 21.41 28.2801 21.32 29.2501C21.3082 29.3676 21.4899 29.4817 21.662 29.5274L21.6602 29.53C21.6602 29.53 21.7402 29.58 21.7602 29.57C21.8702 29.6 21.9402 29.51 21.9402 29.51L23.6002 27.12C23.6002 27.12 23.8102 26.8 23.5902 26.66L23.3402 26.5L23.3385 26.5025L22.73 26.1101L21.55 26.8601Z" fill="#635994"/>
<path d="M23.2919 8.04847C23.2919 8.04847 23.5819 7.86847 23.8719 8.08847C23.9819 8.17847 24.0419 8.29847 24.0619 8.38847C24.0819 8.46847 24.0319 8.54847 23.9519 8.55847L23.6419 8.59847L23.2919 8.04847Z" fill="black"/>
<path d="M23.0693 8.34048C23.0196 8.31066 23.0051 8.25315 23.0349 8.19351C23.0349 8.19351 23.0382 8.18744 23.0406 8.18341C23.1698 7.9647 23.4283 7.95476 23.6172 8.05418C23.8061 8.15359 23.9218 8.39271 23.7926 8.61142C23.7926 8.61142 23.7896 8.61514 23.7862 8.62084C23.7564 8.67055 23.701 8.68944 23.6563 8.66664L23.0693 8.34048Z" fill="white"/>
<path d="M23.001 8.30159C23.0109 8.26182 23.0195 8.21838 23.0385 8.18459C23.128 8.02553 23.3191 7.96358 23.4483 8.03317C23.5776 8.10276 23.5975 8.29164 23.508 8.45071C23.4881 8.49047 23.4583 8.5203 23.4285 8.54018L23.001 8.30159Z" fill="#7D4533"/>
<path d="M23.0747 8.34357C23.0747 8.3038 23.0846 8.26404 23.1045 8.22427C23.1542 8.1348 23.2636 8.09503 23.3332 8.1348C23.4028 8.17456 23.4227 8.28392 23.363 8.37339C23.3431 8.41316 23.3097 8.43831 23.2799 8.45819L23.0747 8.34357Z" fill="#7D4533"/>
<path d="M23.2617 8.17376C23.2784 8.14541 23.2727 8.11118 23.2491 8.09729C23.2255 8.08341 23.1928 8.09513 23.1762 8.12348C23.1595 8.15183 23.1651 8.18606 23.1888 8.19994C23.2124 8.21383 23.245 8.2021 23.2617 8.17376Z" fill="white"/>
<path d="M22.3993 9.26068C22.438 9.22654 22.4971 9.23023 22.5312 9.26893C22.6481 9.40141 22.8492 9.41551 22.9793 9.30068C23.018 9.26654 23.0771 9.27023 23.1112 9.30893C23.1453 9.34763 23.1417 9.40668 23.103 9.44083C22.8931 9.62601 22.5742 9.6001 22.3911 9.39258C22.3569 9.35388 22.3606 9.29483 22.3993 9.26068Z" fill="#990838"/>
<path d="M27.4398 6.77011L26.2798 5.87011C25.5198 5.27011 24.4098 5.41011 23.8198 6.18011L23.2998 6.85011C23.1798 7.01011 23.1998 7.24011 23.3598 7.36011L26.7098 9.97011C26.8698 10.0901 27.0998 10.0701 27.2198 9.91011L27.7498 9.23011C28.3398 8.47011 28.1998 7.36011 27.4398 6.77011Z" fill="#00A6ED"/>
<path d="M26.2904 8.10007L25.2704 7.31007C25.1404 7.21007 24.9504 7.23007 24.8504 7.36007C24.7504 7.49007 24.7704 7.68007 24.9004 7.78007L25.9204 8.57007C26.0504 8.67007 26.2404 8.65007 26.3404 8.52007C26.4404 8.39007 26.4204 8.20007 26.2904 8.10007Z" fill="#0074BA"/>
<path d="M19.26 12.43L20.79 16L20.7922 15.999C20.8119 16.0474 20.8486 16.0901 20.8998 16.12L24.4998 18.16C24.5398 18.18 24.5798 18.19 24.6198 18.19C24.6998 18.19 24.7798 18.15 24.8298 18.07C24.8998 17.95 24.8598 17.81 24.7398 17.74L21.1966 15.7321L19.7 12.24C19.53 11.84 19.44 11.41 19.44 10.97V2H18.96V10.97C18.96 11.47 19.06 11.97 19.26 12.43Z" fill="#44911B"/>
<path d="M18.8198 6.92999C18.8498 7.07999 18.9998 7.17999 19.1498 7.14999L19.7398 7.03999L19.6398 6.48999L19.0498 6.59999C18.8898 6.62999 18.7898 6.76999 18.8198 6.92999Z" fill="#966661"/>
<path d="M22.4002 12.4001L19.8202 13.0901L19.8002 13.1001C19.6002 13.1601 19.3802 13.1001 19.2202 12.9601L17.2902 11.0701C17.2402 10.9301 17.2102 10.7801 17.2002 10.6301C17.1702 10.3301 17.1802 10.0901 17.1802 10.0901C17.1902 9.95007 17.0702 9.83007 16.9302 9.82007C16.7902 9.81007 16.6702 9.93007 16.6602 10.0701C16.6602 10.0801 16.6502 10.2301 16.6602 10.4301C16.6602 10.4601 16.6302 10.4701 16.6102 10.4501C16.3202 10.1601 16.0402 9.75007 15.9302 9.58007C15.8602 9.47007 15.7102 9.44007 15.6002 9.51007C15.4902 9.58007 15.4602 9.73007 15.5302 9.84007C15.5402 9.85007 15.6802 10.0701 15.8802 10.3301C15.9002 10.3601 15.9302 10.3901 15.9502 10.4201C15.9602 10.4301 15.9502 10.4401 15.9502 10.4501C15.9402 10.4501 15.9302 10.4501 15.9302 10.4501C15.6102 10.1101 15.3902 9.80007 15.3802 9.79007C15.3002 9.68007 15.1602 9.66007 15.0502 9.74007C14.9402 9.82007 14.9202 9.96007 15.0002 10.0701C15.0002 10.0701 15.2402 10.3901 15.5002 10.6801C15.5102 10.6901 15.5002 10.7001 15.4902 10.6901L15.0502 10.3001C14.9502 10.2201 14.8002 10.2301 14.7202 10.3301C14.6302 10.4301 14.6502 10.5901 14.7502 10.6701L15.2502 11.0801C15.2602 11.0901 15.2502 11.1101 15.2302 11.1001C15.0702 10.9901 14.9602 10.9101 14.9602 10.9101C14.8502 10.8301 14.7102 10.8601 14.6302 10.9701C14.5502 11.0801 14.5802 11.2201 14.6902 11.3001C15.1602 11.6301 15.9302 12.1801 16.0202 12.2501L18.0002 14.1901C18.4402 14.6201 19.0302 14.8501 19.6302 14.8501C19.8402 14.8501 20.0602 14.8201 20.2702 14.7601L22.8502 14.0701L22.4002 12.4001Z" fill="#966661"/>
<path d="M24.29 13.06C24.44 13.63 24.1 14.22 23.53 14.37L21.98 14.78C21.62 14.88 21.24 14.67 21.15 14.3L20.77 12.84L22.91 12.18C23.5 12 24.11 12.34 24.27 12.94L24.29 13.06Z" fill="#A17FD5"/>
</svg>

<svg xmlns="http://www.w3.org/2000/svg" width="32" height="32" fill="none"><path fill="#D3D3D3" d="m9.593 20.024-.577-2.52c-.26-.53.154-1.144.704-1.364l5.37-2.16c.67-.27 1.14-.87 1.26-1.57L18 2l-.729.257L16.543 2h-3.346l-1.588.443L10.015 2H2v12.866l.941 3.259L2 21.59v1.454l1.779 5.747L10.463 30h3.507l-4.91-4.59a.683.683 0 0 1 0-1l.96-.91a2.68 2.68 0 0 0 .708-2.705c-.041-.137-1.07-.638-1.135-.77Z"/><path fill="#9B9B9B" d="M16 5.54 16.54 2h1.464L16.62 12.48A2.46 2.46 0 0 1 15 14.51l-5.52 1.96-3.32 1.16c-.94.33-4.16 1.4-4.16 1.4v-4.18l7.34-2.12a3.222 3.222 0 0 0 2.3-2.7l.27-2.17c.06-.48 0-.96-.17-1.41L10.03 2h3.17l.79 3.91c.03.15.03.3.01.45l-.42 3.05c-.04.26.26.42.46.25L14.8 9c.13-.12.23-.26.29-.43l.76-2.37c.06-.22.12-.44.15-.66ZM4.39 24.08 2 23v7h8.56c.03 0-2.63-1.43-3.73-2.02-.3-.16-.54-.42-.67-.73l-1.03-2.41c-.15-.34-.41-.61-.74-.76Z"/><path fill="#636363" d="m9.5 16.457-.23.773c-.06.19-.04.4.05.59l1.41 2.97-2.96-.9c-.73-.22-1.51-.17-2.2.13L2 21.6v-2.57l7.5-2.573Z"/><path fill="#635994" d="m26.24 19.6-1.9-.72v1.45a.95.95 0 1 0 1.9 0v-.73Z"/><path fill="#433B6B" d="M24.606 18.13a.176.176 0 1 0-.353 0v.859a.18.18 0 0 0 .118.2l1.8.62a.179.179 0 1 0 .117-.338l-1.682-.58v-.761Z"/><path fill="#966661" d="M19.917 7.759c.057-.088.415-.667.203-1.11-.15-.31-.4-.22-.4-.22s.05-.35-.25-.42c-.4-.1-.86.04-.86.04-.37.12-.69.49-.74.75-.04.22 0 .55.07.77l.323.705-.008.003c1.093 3.257 3.878 5.237 6.52 6.192l.591-1.638c-2.328-.841-4.573-2.51-5.449-5.072ZM18.982 15.687l-.807 2.281-1.115-.608-5.322 2.71-.21-.722.21-.68L16.1 15.67a2.52 2.52 0 0 1 2.18-.33h.01l.692.347ZM21.547 21.808l-1.905-1.263-.602.915c-.33.5-.33 1.16.01 1.66l2.68 3.99 1.04-.9-1.84-3.71.617-.692Z"/><path fill="#764C49" d="M19.027 6.712a.109.109 0 1 0-.115-.184.45.45 0 0 0-.193.226.433.433 0 0 0 .1.434c.041.043.109.089.189.08-.044.055-.09.118-.14.192a.109.109 0 1 0 .183.12c.154-.237.273-.338.345-.38l.007-.005a1.926 1.926 0 0 0 .103-.03l.007-.002h.002a.108.108 0 0 0 .073-.113c-.01-.1-.094-.108-.166-.094a.404.404 0 0 0-.097.035 3.125 3.125 0 0 1-.333.06.086.086 0 0 1-.02-.016.216.216 0 0 1-.051-.092.188.188 0 0 1 .002-.115.235.235 0 0 1 .104-.116Z"/><path fill="#8B5C56" d="m25.09 10.66-.11 1.75-1.79-.09.12-1.78 1.78.12Z"/><path fill="#8B62BF" d="M25.52 13.27c-.05-.32-.19-.76-.58-1.07-.98-.78-1.75-.45-1.75-.45s-1 .36-1.15 2.02c0 .01-.38 1.41-1.4 2.69l3.6 2.09c1.4-2.41 1.43-4.91 1.28-5.28Z"/><path fill="#636363" d="M20.81 18.01 19.2 20.8l1.67 1.11c.41.27.96.17 1.24-.24l1.61-2.32-2.91-1.34Z"/><path fill="#9B9B9B" d="m17.95 18.1.92-2.47 1.774.824.276-.364 3.57 2.01-.25.45s-.32.67-.86 1.15c-.54.48-1.82.27-1.82.27l-2.91-.6a.945.945 0 0 1-.7-1.27Z"/><path fill="#966661" d="M22.64 10.77c.55.32 1.57.56 2.19.06l.74-.74.79-.75c.39-.66.16-1.52-.5-1.91l-.78-.46c-.66-.39-1.52-.16-1.91.5l-.295.5c-.211.13-.348.189-.443.23-.11.048-.163.071-.211.15-.09.15.008.367.155.468-.443.785-.648 1.414.265 1.953Z"/><path fill="#2D242D" d="M25.157 8.846c.027-.23-.048-.632-.717-1.026-.87-.51-.93-.95-.64-1.43.3-.51.78-.39 1.01-.26.293.172.428.307.54.42.15.149.258.258.64.36.93.25 2.02 1.08 1.26 2.37-.348.59-.652.941-.901 1.148a1.237 1.237 0 0 1-.194 1.769c-.47.37-1.11.33-1.55-.02l-.08-.08c-.56-.53-.72-1.09-.76-1.47.19-.22.36-.46.53-.7 0-.01-.002-.017-.005-.025-.002-.007-.005-.015-.005-.025.14-.17.29-.33.44-.49.084-.093.162-.196.24-.299.063-.082.126-.164.192-.242Z"/><path fill="#8B5C56" d="M25.41 9.535a.545.545 0 1 1-1.09 0 .545.545 0 0 1 1.09 0Z"/><path fill="#635994" d="M25.39 8.689a.24.24 0 1 0-.378-.298l-2 2.54a.24.24 0 0 0 .377.298l2-2.54ZM11.736 18.66s-1.152-.841-1.937-1.418c-.152-.116-.43.146-.542.255-.081.08-.052.15-.052.15l1.188 2.494s.228.495.461.377l.196-.096a.386.386 0 0 0 .028-.012l.685-.34-.027-1.41Zm9.813 8.2s-.14 1.42-.23 2.39c-.012.117.17.23.342.276l-.002.003s.08.05.1.04c.11.03.18-.06.18-.06l1.66-2.39s.21-.32-.01-.46l-.25-.16-.002.003-.608-.393-1.18.75Z"/><path fill="#000" d="M23.292 8.048s.29-.18.58.04c.11.09.17.21.19.3.02.08-.03.16-.11.17l-.31.04-.35-.55Z"/><path fill="#fff" d="M23.07 8.34c-.05-.03-.065-.087-.035-.146 0 0 .003-.007.006-.01.129-.22.387-.23.576-.13.19.1.305.339.176.557l-.007.01c-.03.05-.085.068-.13.046l-.587-.327Z"/><path fill="#7D4533" d="M23.001 8.302c.01-.04.018-.084.037-.117.09-.16.281-.221.41-.152.13.07.15.259.06.418-.02.04-.05.07-.08.09l-.427-.24Z"/><path fill="#7D4533" d="M23.075 8.344c0-.04.01-.08.03-.12.05-.09.159-.129.228-.09.07.04.09.15.03.24a.227.227 0 0 1-.083.084l-.205-.114Z"/><path fill="#fff" d="M23.262 8.174c.016-.029.01-.063-.013-.077-.023-.014-.056-.002-.073.026-.016.029-.01.063.013.077.023.014.056.002.073-.026Z"/><path fill="#990838" d="M22.4 9.26a.093.093 0 0 1 .131.009.318.318 0 0 0 .448.032.093.093 0 0 1 .124.14.505.505 0 0 1-.712-.048.093.093 0 0 1 .008-.132Z"/><path fill="#00A6ED" d="m27.44 6.77-1.16-.9c-.76-.6-1.87-.46-2.46.31l-.52.67c-.12.16-.1.39.06.51l3.35 2.61c.16.12.39.1.51-.06l.53-.68c.59-.76.45-1.87-.31-2.46Z"/><path fill="#0074BA" d="m26.29 8.1-1.02-.79a.3.3 0 0 0-.42.05.3.3 0 0 0 .05.42l1.02.79c.13.1.32.08.42-.05a.3.3 0 0 0-.05-.42Z"/><path fill="#44911B" d="M19.26 12.43 20.79 16l.002-.001a.25.25 0 0 0 .108.121l3.6 2.04a.247.247 0 0 0 .33-.09c.07-.12.03-.26-.09-.33l-3.543-2.008L19.7 12.24c-.17-.4-.26-.83-.26-1.27V2h-.48v8.97c0 .5.1 1 .3 1.46Z"/><path fill="#966661" d="M18.82 6.93c.03.15.18.25.33.22l.59-.11-.1-.55-.59.11c-.16.03-.26.17-.23.33ZM22.4 12.4l-2.58.69-.02.01c-.2.06-.42 0-.58-.14l-1.93-1.89a1.64 1.64 0 0 1-.09-.44c-.03-.3-.02-.54-.02-.54.01-.14-.11-.26-.25-.27-.14-.01-.26.11-.27.25 0 .01-.01.16 0 .36 0 .03-.03.04-.05.02-.29-.29-.57-.7-.68-.87a.24.24 0 0 0-.33-.07.24.24 0 0 0-.07.33c.01.01.15.23.35.49.02.03.05.06.07.09.01.01 0 .02 0 .03h-.02c-.32-.34-.54-.65-.55-.66a.23.23 0 0 0-.33-.05.23.23 0 0 0-.05.33s.24.32.5.61c.01.01 0 .02-.01.01l-.44-.39a.236.236 0 0 0-.33.03c-.09.1-.07.26.03.34l.5.41c.01.01 0 .03-.02.02-.16-.11-.27-.19-.27-.19-.11-.08-.25-.05-.33.06-.08.11-.05.25.06.33.47.33 1.24.88 1.33.95L18 14.19a2.334 2.334 0 0 0 2.27.57l2.58-.69-.45-1.67Z"/><path fill="#A17FD5" d="M24.29 13.06c.15.57-.19 1.16-.76 1.31l-1.55.41c-.36.1-.74-.11-.83-.48l-.38-1.46 2.14-.66c.59-.18 1.2.16 1.36.76l.02.12Z"/></svg>
